**kern	**kern	**dynam
*part1	*part1	*part1
*staff2	*staff1	*
*I"Piano	*	*
*clefF4	*clefG2	*
*k[]	*k[]	*
=1	=1	=1
*	*^	*
2G	2b 2dd	2g	.
2c	2cc 2ee	2g	.
1G	1b 1dd	1g	.
*	*v	*v	*
=	=	=
2r	2r	[
2c	2g 2cc 2ee	.
2E	2b 2ee 2gg	f
2F	2a 2cc 2ff	.
=	=	=
2C	2g 2cc 2ee	.
2D	2f 2a 2dd	.
1A	1e 1a 1cc#X	>
=	=	=
1D	1f 1a 1dd	.
2r	2r	]
2D	2f 2a	p
=	=	=
2BB-X	2f 2b-X 2dd	.
2C	2e 2g 2ccn	>
2FF	2c 2f 2a	.
2GG	2Bn 2d 2g	.
=	=	=
1AA	1A 1c#X 1e	]
*	*^	*
1DD	1A 1d	1A	.
*	*v	*v	*
=	=	=
1r	1r	.
=:|!	=:|!	=:|!
*-	*-	*-
!!!system-decoration: {(s1,s2)}
